icons/bandaged_fill.svg

<svg width="48" height="48" viewBox="0 0 48 48" fill="none" xmlns="http://www.w3.org/2000/svg">
<path fill-rule="evenodd" clip-rule="evenodd" d="M24 40C32.8366 40 40 32.8366 40 24C40 19.5974 38.2218 15.6102 35.3445 12.7172L19.9954 22.2443C19.9165 24.3397 18.8295 26 17.5 26C16.8239 26 16.2104 25.5706 15.7604 24.8729L8.85082 29.1616C10.998 35.4655 16.9695 40 24 40ZM7.0723 30.1343C5.17256 30.165 4.42749 22.2847 6.7838 18.7298C9.03702 11.3601 15.8926 6 24 6C24.9165 6 25.817 6.0685 26.6967 6.20065C29.9136 5.38503 37.0875 9.55126 36.8933 11.4397C40.0534 14.6829 42 19.1141 42 24C42 33.9411 33.9411 42 24 42C16.213 42 9.58084 37.0552 7.0723 30.1343ZM9.97509 16.293C12.6273 11.4768 17.6883 8.17362 23.5347 8.00664L9.97509 16.293ZM34.2939 11.0154L7.59207 27.5889C7.44325 26.9823 7.33193 26.1621 7.31207 25.2084C7.28417 23.8694 7.44111 22.4631 7.79552 21.3033C8.16355 20.0988 8.65007 19.4559 9.05354 19.2001L27.0766 8.18601L27.1049 8.16709L27.1063 8.16648C27.1196 8.16041 27.228 8.11075 27.5028 8.09868C27.8246 8.08454 28.2631 8.12771 28.8081 8.25348C29.9 8.50546 31.1745 9.03137 32.334 9.68179C33.149 10.139 33.8196 10.6085 34.2939 11.0154ZM33 22C33 24.2091 31.8807 26 30.5 26C29.1193 26 28 24.2091 28 22C28 19.7909 29.1193 18 30.5 18C31.8807 18 33 19.7909 33 22ZM29.4331 31.5441C28.345 30.0258 26.2715 29 23.8925 29C21.4244 29 19.285 30.1041 18.2338 31.7168C17.7803 32.4125 17.3471 34.5194 19.0005 34C23.8131 32.3992 24.2809 32.4582 29.0002 34C30.3167 34.4716 30.0702 32.5758 29.6741 31.8852C29.6262 31.8016 29.5679 31.7245 29.5097 31.6474C29.4839 31.6131 29.458 31.5789 29.4331 31.5441Z" fill="black"/>
</svg>

<svg
  xmlns="http://www.w3.org/2000/svg"
  width="24"
  height="24"
  viewBox="0 0 24 24"
  fill="none"
  stroke="currentColor"
  stroke-width="2"
  stroke-linecap="round"
  stroke-linejoin="round"
>
  <path
    fill-rule="evenodd"
    d="M24 40c8.837 0 16-7.163 16-16a15.95 15.95 0 0 0-4.656-11.283l-15.349 9.527C19.916 24.34 18.83 26 17.5 26c-.676 0-1.29-.43-1.74-1.127l-6.91 4.289C10.999 35.466 16.97 40 24 40M7.072 30.134c-1.9.031-2.645-7.85-.288-11.404C9.037 11.36 15.893 6 24 6q1.375.002 2.697.2c3.217-.815 10.39 3.351 10.196 5.24A17.94 17.94 0 0 1 42 24c0 9.941-8.059 18-18 18-7.787 0-14.42-4.945-16.928-11.866m2.903-13.841c2.652-4.816 7.713-8.12 13.56-8.286zm24.319-5.278L7.592 27.59c-.149-.607-.26-1.427-.28-2.38-.028-1.34.13-2.746.484-3.906.368-1.204.854-1.847 1.258-2.103L27.077 8.186l.028-.019h.001c.014-.007.122-.056.397-.068.322-.014.76.029 1.305.154 1.092.252 2.366.778 3.526 1.429.815.457 1.486.926 1.96 1.333M33 22c0 2.21-1.12 4-2.5 4S28 24.21 28 22s1.12-4 2.5-4 2.5 1.79 2.5 4m-3.567 9.544C28.345 30.026 26.272 29 23.893 29c-2.469 0-4.608 1.104-5.66 2.717-.453.696-.886 2.802.767 2.283 4.813-1.6 5.28-1.542 10 0 1.317.472 1.07-1.424.674-2.115-.048-.083-.106-.16-.164-.238z"
    clip-rule="evenodd"
  />
</svg>
